X:7348
T:Humours of last night (4-part version of Merrily kiss the quaker)
S:Petrie book, I think
R:Jig
O:Ireland
M:6/8
K:G
D/E/ |\
GAB D2E | c2A BGE | GAB D2E | A3 AGE |\
GAB D2E | c2A BGE | GAB D2E | G3 G2 ||
c |\
BcB Bcd | edc BAG | BcB Bcd | e3 g3 |\
BcB Bcd | ege dBG | GAB D2E | G3 G2 ||
c |\
BGG AGG | BGG AGE | GAB D2E | A3 A2 c |\
BGG AGG | BGG AGE | GAB D2E | G3 G2 ||
(3d/e/f/ |\
g2 aga | bge dcB | g3 gab | a3 age | \
gbg faf | ege dB>G | GAB D2E | G3 G2 ||
